modules/feathericon/icons/code.svg

<?xml version="1.0" encoding="UTF-8"?>
<svg width="14px" height="8px" viewBox="0 0 14 8" version="1.1" xmlns="http://www.w3.org/2000/svg" xmlns:xlink="http://www.w3.org/1999/xlink">
    <!-- Generator: sketchtool 48.1 (47250) - http://www.bohemiancoding.com/sketch -->
    <title>code</title>
    <desc>Created with sketchtool.</desc>
    <defs></defs>
    <g id="production" stroke="none" stroke-width="1" fill="none" fill-rule="evenodd">
        <g id="code" fill="#000000">
            <path d="M4.99999978,6.9658784 L3.99999978,8.00000003 L0,4 L3.99999976,0 L4.99999978,1.00000003 L1.99999976,4 L4.99999978,6.9658784 Z M8.99999976,7.00000003 L11.9993445,4 L8.99999976,1.00000003 L9.99934448,0 L13.9993442,4 L9.99934447,8.00000003 L8.99999976,7.00000003 Z" id="Shape"></path>
        </g>
    </g>
</svg>

<svg width="14" height="8" viewBox="0 0 14 8" xmlns="http://www.w3.org/2000/svg"><path d="M5 6.966L4 8 0 4l4-4 1 1-3 3 3 2.966zM9 7l3-3-3-3 1-1 4 4-4 4-1-1z" fill="#000" fill-rule="evenodd"/></svg>
